public/images/rocks/rock-yellow.svg

<svg version="1.1" id="Layer_1" xmlns="http://www.w3.org/2000/svg" xmlns:xlink="http://www.w3.org/1999/xlink" x="0px" y="0px"
	 width="100%" viewBox="0 0 424 371" enable-background="new 0 0 424 371" xml:space="preserve">
<path fill="#D7A82E" opacity="1.000000" stroke="none"
	d="
M177.763962,80.718948
	C186.448242,75.375977 194.673431,69.941185 203.331055,65.315834
	C210.792450,61.329559 218.649811,58.025578 226.508484,54.857452
	C235.278931,51.321754 244.159912,48.004818 253.158661,45.107948
	C260.650665,42.696129 268.359955,40.937462 276.014587,39.058823
	C283.948517,37.111629 291.854553,34.754990 299.919250,33.729782
	C306.360229,32.910988 313.027985,29.972414 319.582703,33.561535
	C320.973877,34.323303 322.429047,35.010334 323.699310,35.943401
	C328.965729,39.811741 332.928528,44.514732 335.072388,50.956314
	C338.383118,60.904030 342.488037,70.584572 345.974640,80.477631
	C348.243896,86.916451 350.128693,93.498840 351.983734,100.073906
	C356.184296,114.962563 360.207947,129.901108 364.404724,144.790848
	C367.113312,154.400543 370.207886,163.905426 372.743805,173.558594
	C374.800568,181.387863 376.223938,189.381592 378.036041,197.277618
	C379.907898,205.433853 382.657867,213.467758 383.678436,221.721512
	C385.181641,233.878479 388.153290,246.324966 381.939301,258.190216
	C381.426544,259.169250 380.804230,260.115845 380.097107,260.964386
	C366.541718,277.230164 351.457184,291.982178 333.274475,302.872040
	C323.414124,308.777557 312.593353,313.309540 300.879333,315.057251
	C288.315491,316.931824 275.818237,319.250366 263.286865,321.345001
	C251.878876,323.251892 240.463821,325.116394 229.052505,327.003387
	C219.571960,328.571045 210.101807,330.204956 200.607742,331.685791
	C196.723846,332.291565 192.789017,332.927551 188.877594,332.925964
	C180.650085,332.922668 172.848557,334.305634 164.896454,336.700104
	C157.344009,338.974182 149.138351,339.410278 141.173798,339.892273
	C133.040207,340.384491 124.772385,340.621582 116.712669,339.685089
	C111.287567,339.054718 106.132942,336.159698 100.837715,334.334717
	C91.534203,331.128296 84.085449,324.949860 76.699318,318.840118
	C72.610283,315.457672 68.866188,311.430023 65.783470,307.110260
	C60.536461,299.757721 55.451042,292.203491 51.199337,284.251892
	C47.127563,276.636810 45.331486,268.254913 44.864269,259.428345
	C43.951004,242.175201 46.644836,225.297287 48.931068,208.352676
	C49.805019,201.875320 50.983707,195.439667 51.945644,188.973419
	C53.321198,179.726822 58.860317,172.537689 64.748543,166.091217
	C71.001060,159.245911 78.649094,153.657257 85.805992,147.661011
	C93.129250,141.525391 100.480309,135.411194 108.040222,129.573868
	C113.135551,125.639557 118.678154,122.290184 123.902405,118.515450
	C128.461273,115.221497 132.758926,111.563942 137.341034,108.304695
	C147.087982,101.371704 156.916504,94.552017 166.771759,87.773376
	C170.255234,85.377380 173.913895,83.236076 177.763962,80.718948
z"/>
</svg>

<svg viewBox="0 0 424 371" xml:space="preserve" xmlns="http://www.w3.org/2000/svg">
  <path d="M177.76 80.72c8.68-5.34 16.9-10.78 25.57-15.4 7.46-3.99 15.32-7.3 23.17-10.46a395.77 395.77 0 0 1 26.65-9.75c7.5-2.41 15.2-4.17 22.86-6.05 7.93-1.95 15.84-4.3 23.9-5.33 6.45-.82 13.11-3.76 19.67-.17 1.39.76 2.84 1.45 4.11 2.38 5.27 3.87 9.23 8.58 11.38 15.02 3.3 9.94 7.41 19.63 10.9 29.52a321.25 321.25 0 0 1 6 19.6c4.2 14.88 8.23 29.82 12.43 44.71 2.7 9.61 5.8 19.12 8.34 28.77 2.06 7.83 3.48 15.82 5.3 23.72 1.86 8.15 4.61 16.19 5.63 24.44 1.5 12.16 4.48 24.6-1.74 36.47-.5.98-1.13 1.93-1.84 2.78-13.55 16.26-28.64 31.01-46.82 41.9-9.86 5.9-20.68 10.44-32.4 12.19-12.56 1.87-25.06 4.2-37.59 6.29-11.4 1.9-22.82 3.77-34.23 5.65-9.48 1.57-18.95 3.2-28.45 4.69-3.88.6-7.82 1.24-11.73 1.24-8.22 0-16.03 1.38-23.98 3.77-7.55 2.28-15.76 2.71-23.72 3.2-8.13.49-16.4.72-24.46-.21-5.43-.63-10.58-3.53-15.88-5.35-9.3-3.21-16.75-9.39-24.13-15.5a62.5 62.5 0 0 1-10.92-11.73c-5.25-7.35-10.33-14.9-14.58-22.86-4.08-7.61-5.87-16-6.34-24.82-.91-17.25 1.78-34.13 4.07-51.08.87-6.47 2.05-12.91 3.01-19.38 1.38-9.24 6.92-16.43 12.8-22.88 6.26-6.84 13.9-12.43 21.06-18.43a718.77 718.77 0 0 1 22.24-18.09c5.1-3.93 10.63-7.28 15.86-11.05 4.56-3.3 8.85-6.95 13.44-10.21a2264.6 2264.6 0 0 1 29.43-20.54c3.48-2.4 7.14-4.53 10.99-7.05z" fill="#D7A82E"/>
</svg>
